X: 2
T: Pust' vsegda budet solntse
T: Let there always be sunshine
C: A.Ostrovski
Z: John Chambers <jc@trillian.mit.edu>
M: C
L: 1/8
K: Em
| "Em"B,2CB, E4 | "F#7"F2GF "B7"B,4 | "Em"B,2GG G2FE | "B7"E2^D6 |
| "G"=D2ED G4 | "D7"A2BA D4 | D2FG A2GA | "F#m"B2 "B7"B,B, || [K:E]
|: "E"E4 F2G2 | F2E2 B,2B,2 | E4 F2G2 | "B7"G2F2 B,2B,2 |
| F4G2A2 | B2F2 F2G2 |1 "Am"A4 "B7"E2F2 | "E"G4 "B7"B,2B,2 :|2 "Am"A4 "B7"G2F2 | "E"E4 |]
